X: 4
T: The Banks Of Lough Gowna
R: jig
M: 6/8
L: 1/8
K: Bmin
|:B2 B BAF| FEF DFA |B2 B B^AB|| d2 e fed|B2 B BAF| FEF DFA ||def gfe|1 fdB B2 z:|2 fdB B2 A:||:def a3 | afb afe|d2A def||gfe fdB| def a3 |afb afe | |def gfe |1 fdB B2A:|2 fdB dBA:|


Tune 775	Setting 13899

